X: 1
T: Orsapolska
O: efter Bengt Jonsson
Z: John Chambers <jc@trillian.mit.edu>
M: 3/4
L: 1/16
K: G
|: "G"G2Bd g4 d3g | b3(g- ga)gf g3f | "C"e3(c- c2e2) g3f | "D7"e3(d- de)dc B3A |
| "G"GBdg- g4 d3g | b3(g- ga)gf g3f | "C"e3(c- c2e2) g3f | "D7"e2d^c d8- | d4 d8 :|
|: "G"g3(B- B2c2) d3e | (de)d(B G3)A B3B | "D7"(BAB)(c- c3A) F3A | "G"G3(G- G2B2) d3d |
| "G"g3(B- B2c2) d3e | (de)d(B G3)A B3B | "D7"(BAB)(c- c3A) F3A | A2GF "G"G8 :|

